data/icon-01.svg

<svg viewBox="0 0 800 800"><defs><style>.cls-1{fill:#5b5b66;}.cls-2{fill:#fff;}</style></defs><title>icon</title><rect class="cls-1" width="800" height="800"/><circle class="cls-1" cx="400" cy="400" r="400"/><path class="cls-2" d="M400.133,117.109c-156.182,0-282.792,126.652-282.792,282.885S243.951,682.88,400.133,682.88,682.925,556.228,682.925,399.995,556.315,117.109,400.133,117.109ZM303.984,486.982H229.751V412.724h74.233Zm0-95.474H229.751V317.251h74.233Zm0-95.474H229.751V221.777h74.233Z"/></svg>

<?xml version="1.0" encoding="utf-8"?>
<!-- Generator: Adobe Illustrator 21.0.0, SVG Export Plug-In . SVG Version: 6.00 Build 0)  -->
<svg version="1.1" id="レイヤー_1" xmlns="http://www.w3.org/2000/svg" xmlns:xlink="http://www.w3.org/1999/xlink" x="0px"
	 y="0px" viewBox="0 0 800 800" style="enable-background:new 0 0 800 800; fill:#FFFFFF;" xml:space="preserve">

<title>icon</title>
<path d="M400.1,117.1C244,117.1,117.3,243.8,117.3,400S244,682.9,400.1,682.9S682.9,556.2,682.9,400
	S556.3,117.1,400.1,117.1z M304,487h-74.2v-74.3H304V487z M304,391.5h-74.2v-74.3H304V391.5z M304,296h-74.2v-74.3H304V296z"/>
</svg>
